X: 12804
T: Feathers In The Stew
R: hornpipe
M: 4/4
K: Gmajor
gfgd BcBd|G2BG dGeG|gfgd BcBd|GABc d2ef|
gfgd BcBd|G2BG dGeG|cAeA gedB|1 cAFA G2Bd:|2 cAFA G2GA||
|:BGDG dGG2|BGG2 cAFD|BGdG eGdG|ABcd eAA2|
BGDG dGG2|BGG2 cAFD|GFGA BAGB|1 AGFA G2GA:|2 cAFA G2 (3Bcd||

